X:80
T: Lord Kitchener's Pipes
S: M.Mulvihill
Z: B.Black
R: jig
M: 6/8
L: 1/8
K: Dmix
D | DED DEG | AGE c2 D | DED DEG | cGE D2 D |
DED DEG | AGE c2 e | dcA AGE | GED D2 :|
A | d^cd edB | cBc EFG | d^cd edB | edB c2 A |
d^cd edB | cBc EFG | DED cGE | DED D2 :|
